X:19
T:Quick March. JGi.019
T:?
S:Joshua Gibbons MS,1823,Tealby,Lincs.
M:2/4
L:1/8
Q:1/4=120
R:march
O:Tealby,Lincolnshire
Z:VMP/R.Greig, 2009
K:G
B>A|G3e|dBBe|dBBe|dBBg|G3e|dBBe|e>f dB|
B3A|G3e|dBBe|dBBe|dBBg|G3e|dBBe|e>gdB|A4:|
|:bggb|affa|geef|dBB2|bggb|affd|egfg|Ha3g|
bggb|affa|geef|dBB2|g<b f<a|e<g d<f|e<g dB|A4:|

